X: 1
T: The Atholl Highlanders
R: jig
M: 6/8
L: 1/8
K: Amaj
|:e2e ecA|ecA Bcd|e2e ecA|Bcd cBA|e2e ecA|ecA Bcd|eae fed|cdB A3:|Ace Ace|Adf Adf|Ace Ace|Bcd c2B|Ace Ace|Adf Adf|eae fed|cdB A3:||:a2a aec|a2a aec|a2a aec|Bcd cBA|a2a aec|a2a aec|eae fed|cdB A3:|c2c cBA|d2d fed|c2c cBA|=G2=G BA=G|c2c cBA|d2d fed|eae fed|cdB A3:|


Tune 107	Setting 12681

